src/assets/logos/MATIC.svg

<svg width="24" height="24" viewBox="0 0 24 24" fill="none" xmlns="http://www.w3.org/2000/svg">
<path d="M12 24C18.6274 24 24 18.6274 24 12C24 5.37258 18.6274 0 12 0C5.37258 0 0 5.37258 0 12C0 18.6274 5.37258 24 12 24Z" fill="#8247E5"/>
<path d="M15.9712 9.43247C15.6834 9.26504 15.3092 9.26504 14.9926 9.43247L12.7476 10.7162L11.2221 11.5534L8.9771 12.8371C8.68927 13.0046 8.31511 13.0046 7.99849 12.8371L6.21398 11.8325C5.92617 11.665 5.7247 11.3581 5.7247 11.0232V9.04177C5.7247 8.70689 5.89739 8.39991 6.21398 8.23247L7.96971 7.25571C8.25752 7.08827 8.6317 7.08827 8.94832 7.25571L10.704 8.23247C10.9919 8.39991 11.1933 8.70689 11.1933 9.04177V10.3255L12.7188 9.46036V8.17664C12.7188 7.84177 12.5461 7.53478 12.2295 7.36734L8.9771 5.52548C8.68927 5.35804 8.31511 5.35804 7.99849 5.52548L4.68852 7.36734C4.37191 7.53478 4.19922 7.84177 4.19922 8.17664V11.8883C4.19922 12.2232 4.37191 12.5301 4.68852 12.6976L7.99849 14.5394C8.28633 14.7069 8.66049 14.7069 8.9771 14.5394L11.2221 13.2836L12.7476 12.4185L14.9926 11.1627C15.2804 10.9953 15.6546 10.9953 15.9712 11.1627L17.7269 12.1394C18.0147 12.3069 18.2162 12.6139 18.2162 12.9488V14.9302C18.2162 15.265 18.0435 15.572 17.7269 15.7394L15.9712 16.7441C15.6834 16.9116 15.3092 16.9116 14.9926 16.7441L13.2369 15.7674C12.9491 15.5999 12.7476 15.2929 12.7476 14.9581V13.6743L11.2221 14.5394V15.8232C11.2221 16.1581 11.3948 16.4651 11.7114 16.6325L15.0214 18.4744C15.3092 18.6418 15.6834 18.6418 16 18.4744L19.3099 16.6325C19.5978 16.4651 19.7992 16.1581 19.7992 15.8232V12.1116C19.7992 11.7767 19.6266 11.4697 19.3099 11.3022L15.9712 9.43247Z" fill="white"/>
</svg>

<svg fill="none" height="24" width="24" xmlns="http://www.w3.org/2000/svg"><path d="M12 24c6.627 0 12-5.373 12-12S18.627 0 12 0 0 5.373 0 12s5.373 12 12 12z" fill="#8247e5"/><path d="M15.971 9.432a1.016 1.016 0 0 0-.978 0l-2.245 1.284-1.526.837-2.245 1.284a1.015 1.015 0 0 1-.979 0l-1.784-1.005c-.288-.167-.49-.474-.49-.809V9.042a.9.9 0 0 1 .49-.81l1.756-.976c.288-.168.662-.168.978 0l1.756.976c.288.168.49.475.49.81v1.283l1.525-.865V8.177a.9.9 0 0 0-.49-.81L8.977 5.525a1.016 1.016 0 0 0-.979 0l-3.31 1.842a.9.9 0 0 0-.489.81v3.711a.9.9 0 0 0 .49.81l3.31 1.841c.287.168.661.168.978 0l2.245-1.255 1.526-.866 2.245-1.255c.287-.168.662-.168.978 0l1.756.976c.288.168.49.475.49.81v1.981a.9.9 0 0 1-.49.81l-1.756 1.004a1.015 1.015 0 0 1-.978 0l-1.756-.977c-.288-.167-.49-.474-.49-.809v-1.284l-1.525.865v1.284a.9.9 0 0 0 .49.81l3.31 1.841c.287.168.661.168.978 0l3.31-1.842c.288-.167.49-.474.49-.809v-3.711a.9.9 0 0 0-.49-.81z" fill="#fff"/></svg>
